X:1
T:Title
%%score { ( 1 4 ) | ( 2 3 5 ) }
L:1/8
M:3/4
K:C
V:1 treble nm="Grand Piano"
V:4 treble 
V:2 bass 
V:3 bass 
V:5 bass 
V:1
 z2 z2[Q:1/4=110] E2 | E2 F2 [CEG]2 | [CFA]4 [G,EG]2 | [G,CE]4 [G,CE]2 | [B,D]2 E2 F2 | G4 z2 | %6
 E4 E2 | E2 F2 [CEG]2 | [CFA]4 [CFA]2 | [^FA]2 z2 z2 | [DGB]4 [DGB]2 | [Gc]2 z2 z2 | %12
 [CEG]2 [CE]2 [G,DF]2 | [G,CE]6- |[M:2/4] [G,CE]4 |[M:1/4] z2 |[M:3/4] z2 z2 [CE]2 | %17
 [B,D]2 E2 [DF]2 |[M:4/4] [CE]6 z2 |[M:3/4] z2 z2 [CE]2 | [B,D]2 E2 [DF]2 |[M:4/4] [CE]6 [CEG]2 | %22
[M:3/4] [CFA]4 [CFA]2 | [DFB]4 [DFB]2 | [CGc]4 [CGc]2 | [Gd]4 [Gd]2 | [Ge]2 c2 A2 | G4 d2 | %28
 [Ec]6- |[M:2/4] [Ec]4 |] %30
V:2
 z2 z2 [C,G,C]2 | C2 z2 z2 | C,4 C,2 | C,4 C,2 | z2 C2 [G,D]2 | [G,E]4 [G,B,D]2 | [C,C]4 [C,G,C]2 | %7
 C2 D2 C,2 | F,4 F,2 | z2 G2 D,2 | G,4 F,2 | z2 G2 F,2 | G,2 G,2 G,,2 | C,6- |[M:2/4] C,4 | %15
[M:1/4] G2 |[M:3/4] G6- | G6- |[M:4/4] G6 z2 |[M:3/4] G6- | G6- |[M:4/4] G6 z2 |[M:3/4] F,4 F,2 | %23
 D,4 D,2 | E,4 E,2 | [G,B,]4 [G,B,]2 | z2 E2 [F,CF]2 | [G,CE]4 [G,,B,F]2 | [C,C]6- | %29
[M:2/4] [C,C]4 |] %30
V:3
 x6 | [C,G,]2- [C,G,D]2 C,2 | x6 | x6 | G,4 z2 | x6 | x6 | [C,G,]4 z2 | x6 | D,4 z2 | x6 | E,4 z2 | %12
 x6 | x6 |[M:2/4] x4 |[M:1/4] x2 |[M:3/4] x6 | G,4 z2 |[M:4/4] x8 |[M:3/4] x6 | G,4 z2 | %21
[M:4/4] x8 |[M:3/4] x6 | x6 | x6 | x6 | [C,C]4 z2 | x6 | x6 |[M:2/4] x4 |] %30
V:4
 x6 | x6 | x6 | x6 | x6 | z2 A,2 F2 | x6 | x6 | x6 | D2- [DB]2 [DAc]2 | x6 | C4 [CFA]2 | x6 | x6 | %14
[M:2/4] x4 |[M:1/4] x2 |[M:3/4] x6 | x6 |[M:4/4] x8 |[M:3/4] x6 | x6 |[M:4/4] x8 |[M:3/4] x6 | x6 | %24
 x6 | x6 | x6 | x6 | x6 |[M:2/4] x4 |] %30
V:5
 x6 | x6 | x6 | x6 | x6 | x6 | x6 | x6 | x6 | x6 | x6 | x6 | x6 | x6 |[M:2/4] x4 |[M:1/4] x2 | %16
[M:3/4] z2 z2 C,2 | z2 C2 G,,2 |[M:4/4] C,6 G2 |[M:3/4] z2 z2 C,2 | z2 C2 G,,2 |[M:4/4] C,6 C,2 | %22
[M:3/4] x6 | x6 | x6 | x6 | x6 | x6 | x6 |[M:2/4] x4 |] %30

